X: 1100
T: Hüseynî Peşrev
C: III. Selim (İlhâmî)
O: Turkey
F: http://compmusic.upf.edu/node/140
N: huseyni--pesrev--devrikebir----iii_selim
N: makam= huseyni
N: form= pesrev
N: usul= devrikebir = 28/4
M: 28/4
L: 1/16
K: C _2/4B ^3/4f  
Q: 1/4=60
%%MIDI tuningsystem comma53
e4 ddd2 e4 z4  | ^fgfe f2g2 f3e d4  | \
w:   |   | 
e2^f2 e2f2 g2a2 g2f2  | 
w:   | 
e2^fg f2e2 d4 _1/4b2a2  | a2g4^f2 f3e d2e2  | \
w:   |   | 
ddd2 e4 _1/4bab2 a4  | 
w:   | 
g2^f2 e4 z4 g2f2  | g2a_1/4b a6g^f g2a2  | \
w:   |   | 
g2^f2 gagf e4 e4  | 
w:   | 
a4 g2^f2 e2d2 c2_1/4B2  | c2de d2e4d2 e2^f2  | \
w:   |   | 
g2a2 g2^f2 ede2 d2c4_1/4B2 z2d2 c2B2 A6B2 A2B2 G4 A3G  | 
w:   | 
A2_1/4B2 c4 d2e2 ddd2  | e4 z2g2 ^f2e2 fgfe  | \
w:   |   | 
d4 e^fed e2f2 g2a2  | 
w:   | 
g2^f2 gfg2 a4 z2_1/4b2  | a2g2 ^f3e d2_1/4b2 a2g4f2 f3e d2e2 efg4fe e4 z4 gagf  | 
w:   |   | 
g2a2 g3^f e4 fgfe  | ^f2g2 f3e d4 e2f2  | \
w:   |   | 
g2_1/4ba g2^f2 e2d2 d2c4_1/4B2 z2d2 c2B2 A2B2  | 
w:   | 
G2A2 _1/4B2c2 A2B2 c2d2  | e2=f2 e2d2 c2_1/4B2 cdcB  | \
w:   |   | 
A8 z4 A6e2 e2d2 c2d2 c4  | 
w:   | 
d4 e4 d2e2 ^f4  | e2^f2 g2a2 g2f2 f2g2  | \
w:   |   | 
^f2e2 f3e d2e2 d4  | e4 z4 e2^f2 g2a4g2 f3e d4 z2g2  | 
w:   |   | 
=f2e2 d2^c2 _7/8B2c2 d4  | d4 d4 z4 =B2^c2  | \
w:   |   | 
=B2^c2 d2c2 d2e2 d4  | e2=f2 e2f2 e2d2 f2e2  | 
w:   |   | 
d2c2 d6e2 d4  | e4 z4 e2^f2 e4  | ^f4 g2a2 g2f2 g4  | \
w:   |   |   | 
a4 ^f2g2 e2=f2 d2e2  | 
w:   | 
c4 d2e=f e2d2 c3_1/4B  | A2_1/4B2 c2d2 e2^f2 e2f2  | \
w:   |   | 
e2d2 e2^f2 g2a2 g2a2  | 
w:   | 
g2^f2 g3f e8  | z4 gag^f g2a2 g3f  | \
w:   |   | 
e4 ^fgfe f2g2 f3e  | 
w:   | 
d4 e2^f2 g2_1/4ba g2f2  | e2d2 d2c4_1/4B2 z2d2  | \
w:   |   | 
c2_1/4B2 A2B2 G2A2 B2c2  | 
w:   | 
A2_1/4B2 c2d2 e2=f2 e2d2  | c2_1/4B2 cdcB A8  | \
w:   |   | 
z4 A6e2 e2d2  | c2d2 c4 d4 e4  | 
w:   |   | 
d2e2 ^f4 e2f2 g2a2  | g2^f2 f2g2 f2e2 f3e  | \
w:   |   | 
d2e2 d4 e4 z4  | e2^f2 g2a4g2 f3e  | 
w:   |   | 
d4 z2g2 =f2e2 d2^c2  | _7/8B2^c2 d4 d4 d4  | \
w:   |   | 
z4 =B2^c2 B2c2 d2c2  | d2e2 d4 e2=f2 e2f2  | 
w:   |   | 
e2d2 =f2e2 d2c2 d6e2 d4 e4 z4  | e2^f2 e4 f4 g2a2  | \
w:   |   | 
g2^f2 g4 a4 f2g2  | 
w:   | 
e2=f2 d2e2 c4 d2ef  | e2d2 c3_1/4B A2B2 c2d2  | \
w:   |   | 
e2^f2 e2f2 e2d2 e2f2  | 
w:   | 
g2a2 g2a2 g2^f2 g3f  | e8 z4 A6c'2 _1/4b4 a4 g2a2  | \
w:   |   | 
g2^f2 g4 a4 z4  | 
w:   | 
g2a2 g4 a4 a2_b2  | a2_b2 g6c'2 _1/4b2d'2  | \
w:   |   | 
c'2_1/4b2 c'3b g4 a4  | z4 _1/4bab2 a2c'4ba  | 
w:   |   | 
a4 z4 _b6a2  | d'2c'2 _b2a2 b2a2 g2^f2  | \
w:   |   | 
g4 z4 g2^f2 g2a2  | g2^f2 e2f2 d4 e2f2  | 
w:   |   | 
g8 z4 g2^f2  | g4 a4 g2a2 g2^f2  | g3^f e4 e4 g4  | \
w:   |   |   | 
^f2g2 e2f2 d6_1/4b2  | 
w:   | 
a2g2 ^f2g2 f4 g2a2  | g2a2 g2^f2 g2e2 f2g2  | \
w:   |   | 
^f2g2 f2e2 e2d2 e2=f2  | 
w:   | 
e2=f2 e2d2 d2e2 d2c2  | c2d2 c2_1/4B2 A6g2  | \
w:   |   | 
^f2a2 g2f2 g3f e4  | 
w:   | 
e4 z4 gag^f g2a2  | g3^f e4 fgfe f2g2  | \
w:   |   | 
^f3e d4 e2f2 g2_1/4ba  | 
w:   | 
g2^f2 e2d2 d2c4_1/4B2  | z2d2 c2_1/4B2 A2B2 G2A2  | \
w:   |   | 
_1/4B2c2 A2B2 c2d2 e2=f2  | 
w:   | 
e2d2 c2_1/4B2 cdcB A8 z4 A6e2  | e2d2 c2d2 c4 d4  | \
w:   |   | 
e4 d2e2 ^f4 e2f2  | 
w:   | 
g2a2 g2^f2 f2g2 f2e2  | ^f3e d2e2 d4 e4  | \
w:   |   | 
z4 e2^f2 g2a4g2  | ^f3e d4 z2g2 =f2e2  | 
w:   |   | 
d2^c2 _7/8B2c2 d4 d4  | d4 z4 =B2^c2 B2c2  | \
w:   |   | 
d2^c2 d2e2 d4 e2=f2  | e2=f2 e2d2 f2e2 d2c2  | 
w:   |   | 
d6e2 d4 e4  | z4 e2^f2 e4 f4  | g2a2 g2^f2 g4 a4  | \
w:   |   |   | 
^f2g2 e2=f2 d2e2 c4  | 
w:   | 
d2e=f e2d2 c3_1/4B A2B2  | c2d2 e2^f2 e2f2 e2d2  | \
w:   |   | 
e2^f2 g2a2 g2a2 g2f2  | 
w:   | 
g3^f e8 z4  | A6c'2 _1/4b4 a4  | g2a2 g2^f2 g4 a4  | \
w:   |   |   | 
z4 g2a2 g4 a4  | a2_b2 a2b2 g6c'2  | 
w:   |   | 
_1/4b2d'2 c'2b2 c'3b g4  | a4 z4 _1/4bab2 a2c'4ba a4 z4 _b6a2 d'2c'2 b2a2 b2a2  | 
w:   |   | 
g2^f2 g4 z4 g2f2  | g2a2 g2^f2 e2f2 d4  | \
w:   |   | 
e2^f2 g8 z4  | g2^f2 g4 a4 g2a2  | 
w:   |   | 
g2^f2 g3f e4 e4  | g4 ^f2g2 e2f2 d6_1/4b2 a2g2 f2g2 f4  | \
w:   |   | 
g2a2 g2a2 g2^f2 g2e2  | 
w:   | 
^f2g2 f2g2 f2e2 e2d2  | e2=f2 e2f2 e2d2 d2e2  | \
w:   |   | 
d2c2 c2d2 c2_1/4B2 A6g2 ^f2a2 g2f2 g3f  | 
w:   | 
e4 e4 z4 A6e2 d2e2 d2c2 d2c2  | d2e2 d4 e4 ^f2e2  | \
w:   |   | 
^f2g2 f2g2 f2e2 d4  | 
w:   | 
_1/4bab2 a2g4^f2 gfga  | g2^f2 fefg f2e2 ede=f  | 
w:   |   | 
e2d2 c_1/4Bcd c2B2 c3B  | A8 z4 d4  | \
w:   |   | 
e4 e2^fg f2g2 f3e  | 
w:   | 
z2a2 g2^f2 g6d2  | e2^f2 g4 g2f2 g2a2  | \
w:   |   | 
_1/4b2a2 g2^f2 e6g2  | ^f2a2 g2f2 e4 f2g2  | 
w:   |   | 
^f3e d2e2 d4 e4  | e2=f2 e2d2 d2e2 d2c2  | \
w:   |   | 
g4 ^f2e2 d2c2 d2e2  | 
w:   | 
d4 e4 e2^f2 e2f2  | d2_1/4b2 a2g2 ^f2e2 f2g2  | \
w:   |   | 
^f2e2 d2^c2 d4 e2f2  | 
w:   | 
g2a2 g2^f2 g2f2 g2a2  | _1/4b2a2 g2^f2 g3f e8 z4 gagf g2a2  | 
w:   |   | 
g3^f e4 fgfe f2g2  | ^f3e d4 e2f2 g2_1/4ba  | \
w:   |   | 
g2^f2 e2d2 d2c4_1/4B2  | 
w:   | 
z2d2 c2_1/4B2 A2B2 G2A2  | _1/4B2c2 A2B2 c2d2 e2=f2  | \
w:   |   | 
e2d2 c2_1/4B2 cdcB A8 z4 A6e2  | 
w:   | 
e2d2 c2d2 c4 d4  | e4 d2e2 ^f4 e2f2  | \
w:   |   | 
g2a2 g2^f2 f2g2 f2e2  | ^f3e d2e2 d4 e4  | 
w:   |   | 
z4 e2^f2 g2a4g2  | ^f3e d4 z2g2 =f2e2  | \
w:   |   | 
d2^c2 _7/8B2c2 d4 d4  | d4 z4 =B2^c2 B2c2  | 
w:   |   | 
d2^c2 d2e2 d4 e2=f2  | e2=f2 e2d2 f2e2 d2c2  | \
w:   |   | 
d6e2 d4 e4  | z4 e2^f2 e4 f4  | 
w:   |   | 
g2a2 g2^f2 g4 a4  | ^f2g2 e2=f2 d2e2 c4  | \
w:   |   | 
d2e=f e2d2 c3_1/4B A2B2  | 
w:   | 
c2d2 e2^f2 e2f2 e2d2  | e2^f2 g2a2 g2a2 g2f2  | \
w:   |   | 
g3^f e8 z4  | A6c'2 _1/4b4 a4  | 
w:   |   | 
g2a2 g2^f2 g4 a4  | z4 g2a2 g4 a4  | \
w:   |   | 
a2_b2 a2b2 g6c'2  | _1/4b2d'2 c'2b2 c'3b g4  | 
w:   |   | 
a4 z4 _1/4bab2 a2c'4ba a4 z4 _b6a2 d'2c'2 b2a2 b2a2  | \
w:   | 
g2^f2 g4 z4 g2f2  | 
w:   | 
g2a2 g2^f2 e2f2 d4  | e2^f2 g8 z4  | \
w:   |   | 
g2^f2 g4 a4 g2a2  | g2^f2 g3f e4 e4  | 
w:   |   | 
g4 ^f2g2 e2f2 d6_1/4b2 a2g2 f2g2 f4  | \
w:   | 
g2a2 g2a2 g2^f2 g2e2  | ^f2g2 f2g2 f2e2 e2d2  | 
w:   |   | 
e2=f2 e2f2 e2d2 d2e2  | d2c2 c2d2 c2_1/4B2 A6g2 ^f2a2 g2f2 g3f  | 
w:   |   | 
e4 e4 z4 A6e2 d2e2 d2c2 d2c2  | d2e2 d4 e4 ^f2e2  | \
w:   |   | 
^f2g2 f2g2 f2e2 d4  | 
w:   | 
_1/4bab2 a2g4^f2 gfga  | g2^f2 fefg f2e2 ede=f  | 
w:   |   | 
e2d2 c_1/4Bcd c2B2 c3B  | A8 z4 d4  | \
w:   |   | 
e4 e2^fg f2g2 f3e  | 
w:   | 
z2a2 g2^f2 g6d2  | e2^f2 g4 g2f2 g2a2  | \
w:   |   | 
_1/4b2a2 g2^f2 e6g2  | ^f2a2 g2f2 e4 f2g2  | 
w:   |   | 
^f3e d2e2 d4 e4  | e2=f2 e2d2 d2e2 d2c2  | \
w:   |   | 
g4 ^f2e2 d2c2 d2e2  | 
w:   | 
d4 e4 e2^f2 e2f2  | d2_1/4b2 a2g2 ^f2e2 f2g2  | \
w:   |   | 
^f2e2 d2^c2 d4 e2f2  | 
w:   | 
g2a2 g2^f2 g2f2 g2a2  | _1/4b2a2 g2^f2 g3f e8 z4 |
w:   |   | 


